X: 03025
T: DONNIE'S RETURN
C: Bob McQuillen 28 Oct 77
B: Bob's Note Book 03 #25
%R: jig
%D:1977
Z: 2020 John Chambers <jc:trillian.mit.edu>
M: 6/8
L: 1/8
K: G
A \
| B2d cBA | GBd gfg | agf efg | dge dBA |\
| B2d cBA | GBd g2d | ege dgB | AGF G2 :|
|: d \
| g2g fed | g2g fed | gab a2g | fge d3  |\
| efg dgg | cde dBd | gdB AGA | BGG G2 :|
%%begintext align
%% If sure is wonderful to have him
%% back from California. We all
%% miss Donnie McLean
%% when he's away.
%% (He's a _great_ fiddler, you know!)
%%endtext
